X: 38507
T: Steeplechase, The
R: reel
M: 4/4
K: Cmajor
(3G,A,B,|CB,CD EG~G2|Adde dcAB|cBcA GEcA|GFED ECA,B,|
CA,CD EG~G2|Addc dcAB|cBcA GEcA|GEDE C2 z2||
c2 ec gcec|agfd BcdB|c2 ec gcec|agfd BGAB|
c2 ec gcec|agfd BcdB|cBcA GEcA|GEDE C2||

